X:1
T:When We All Get to Heaven
T:Text: Eliza E. Hewitt (1851-1920) Tune: Emily D. Wilson (1865-1942)
T:87 87 Refrain HEAVEN www.hymnary.org/text/sing_the_wondrous_love_of_jesus_hewitt
T:When We All Get to Heaven
T:This hymn is in the public domain.  You may freely use this score for personal and congregational worship.  If you reproduce the score, please credit Hymnary.org as the source. 
T:This hymn is in the public domain.  You may freely use this score for personal and congregational worship.  If you reproduce the score, please credit Hymnary.org as the source. 
T:This hymn is in the public domain.  You may freely use this score for personal and congregational worship.  If you reproduce the score, please credit Hymnary.org as the source. 
Z:This hymn is in the public domain.  You may freely use this score for personal and congregational worship.  If you reproduce the score, please credit Hymnary.org as the source.
%%score ( 1 2 ) ( 3 4 )
L:1/8
M:4/4
K:C
V:1 treble nm="Piano" snm="Pno."
V:2 treble 
V:3 bass nm="Piano" snm="Pno."
V:4 bass 
V:1
 [EG]2 [EG]2 [EG]2 [Ec]2 | (([CE][DF]))(([EG][FA])) [EG]2 [CE]2 | %2
w: 3~Let us then be|true _ and _ faith- ful,|
w: 1~Sing the won- drous|love _ of _ Je- sus,|
w: 2~While we walk the|pil- * grim _ path- way|
 [DF]2 [DF]2 (([DF][CE]))(([B,D][CE])) | [DF]2 [B,G]2 [CE]4 | [EG]2 [Ec]2 [Ec]2 [EG]2 | %5
w: trus- ting, ser- * ving _|ev- ery day;|just one glimpse of|
w: sing his mer- * cy _|and his grace;|in the man- sions|
w: clouds will o- * ver- *|spread the sky,|but when tra- veling|
 [FA]2 [Fc]2 [Fc]2 [^DA]2 | [EG]2 [Ec]2 [Fc]>[FB] [FA]>[FB] | [Ec]6 ||"^Refrain" E>G | %9
w: him in glo- ry|will the toils of life re-|pay.|When we|
w: bright and bles- sed|he'll pre- pare for us a|place.||
w: days are o- ver,|not a sha- dow, not a|sigh.||
 c6 [GB]>[FA] | [EG]4 [CE]2 G>G | c2 c>c | c>c B>c | d6 G>c | e6 [Gc]2 | [Fc]4 [FA]2 [^DA]2 | %16
w: all get to|hea- ven, what a|day of re-|joic- ing that will|be! When we|all see|Je- sus we'll|
w: |||||||
w: |||||||
 [EG]2 [Ec]2 c>B [FA]>B | c4- c4 |] %18
w: sing and shout the vic- to-|ry. *|
w: ||
w: ||
V:2
 x8 | x8 | x8 | x8 | x8 | x8 | x8 | x6 || z2 | z2 E>E E2 x2 | x4 x2 z2 | z2 G>G | ^F2 F>F | %13
 =F>F F>F F2 z2 | z2 G>G G2 x2 | x8 | x4 F2 x2 | E>E F>F E4 |] %18
V:3
 [C,C]2 [C,C]2 [C,C]2 [C,G,]2 | [C,G,]2 [C,G,]2 [C,C]2 [C,G,]2 | %2
w: ||
 [G,,B,]2 [G,,B,]2 [G,,G,]2 [G,,G,]2 | [G,,G,]2 [G,,G,]2 [C,G,]4 | [C,C]2 [C,G,]2 [C,G,]2 [C,C]2 | %5
w: |||
 [F,C]2 [F,A,]2 [F,A,]2 [^F,C]2 | [G,C]2 [G,C]2 [G,D]>[G,D] G,>G, | [C,G,]6 || z2 | %9
w: ||||
 z2 [C,G,]>[C,G,] [C,G,]2 [C,C]>[C,C] | [C,C]4 [C,G,]2 z2 | z2 [E,G,]>[E,G,] | %12
w: When we all * *||what a|
 [D,A,]2 [D,A,]>[D,A,] | [G,B,]>[G,B,] [G,B,]>[G,B,] [G,B,]2 z2 | z2 [C,C]>[C,C] [C,C]2 [E,_B,]2 | %15
w: day of re-|joic- ing that will be!|When we all *|
 [F,A,]4 [F,C]2 [^F,C]2 | [G,C]2 [G,C]2 [G,D]2 [G,D]2 | [C,C]>[C,G,] [C,A,]>[C,A,] [C,G,]4 |] %18
w: |* * shout, and|shout the vic- to- ry.|
V:4
 x8 | x8 | x8 | x8 | x8 | x8 | x6 G,>G, | x6 || x2 | x8 | x8 | x4 | x4 | x8 | x8 | x8 | x8 | x8 |] %18

